icons/aerospike/aerospike-plain.svg

<svg xmlns="http://www.w3.org/2000/svg" xmlns:xlink="http://www.w3.org/1999/xlink" viewBox="0 0 128 128" version="1.1">
<g id="surface1">
<path style=" stroke:none;fill-rule:nonzero;fill:rgb(0,0,0);fill-opacity:1;" d="M 76.515625 82 L 39.734375 65.507812 L 76.515625 49.125 Z M 128 0 L 128 128 L 0 128 L 0 0 Z M 102.90625 28.726562 L 30.25 61.589844 L 21.679688 65.550781 L 30.25 69.222656 L 102.90625 102.089844 L 102.90625 93.742188 L 83.835938 85.199219 L 83.835938 45.929688 L 102.90625 37.472656 Z M 102.90625 28.726562 "/>
</g>
</svg>

<svg xmlns="http://www.w3.org/2000/svg" viewBox="0 0 128 128"><path d="M76.516 82 39.734 65.508l36.782-16.383ZM128 0v128H0V0Zm-25.094 28.727L30.25 61.59l-8.57 3.96 8.57 3.673 72.656 32.867v-8.348L83.836 85.2V45.93l19.07-8.456Zm0 0"/></svg>
